src/assets/icons/installIcon.svg

<svg width="18" height="24" viewBox="0 0 18 24" fill="none" xmlns="http://www.w3.org/2000/svg">
<path d="M4.4054 1.5H8.87842H13.3514C14.2331 1.5 15.0332 1.80623 15.6136 2.29992C16.1941 2.79361 16.5534 3.47412 16.5534 4.22333V17.9619V19.7473C16.5534 20.4965 16.1933 21.1777 15.6136 21.6707C15.0332 22.1644 14.2331 22.47 13.3514 22.47H4.40465C3.52378 22.47 2.72292 22.1638 2.14247 21.6707C1.56202 21.177 1.20273 20.4959 1.20273 19.7473V17.9619V4.22333C1.20273 3.47412 1.56277 2.79297 2.14247 2.29992C2.72292 1.80623 3.52378 1.5 4.40465 1.5H4.4054ZM4.59788 7.39412C4.37974 7.19703 4.39106 6.88631 4.62279 6.70077C4.85451 6.51523 5.21984 6.52486 5.43799 6.72196L8.30099 9.29891V2.48289H4.4054C3.84307 2.48289 3.33206 2.6787 2.96069 2.99456C2.58932 3.30977 2.3591 3.74504 2.3591 4.22333V17.4708H15.3985V4.22333C15.3985 3.74569 15.1683 3.31042 14.7969 2.99456C14.4255 2.6787 13.9145 2.48289 13.3522 2.48289H9.45661V9.29891L12.3196 6.72196C12.5378 6.52486 12.9023 6.51523 13.1348 6.70077C13.3665 6.88631 13.3779 7.19639 13.1597 7.39412L9.29885 10.8692L9.27395 10.8904C9.04222 11.0759 8.67689 11.0663 8.45875 10.8692L4.59788 7.39412ZM15.3985 18.4537H2.3591V19.748C2.3591 20.2256 2.58932 20.6609 2.96069 20.9767C3.33206 21.2926 3.84307 21.4884 4.4054 21.4884H13.3522C13.9145 21.4884 14.4255 21.2926 14.7969 20.9767C15.1683 20.6609 15.3985 20.2262 15.3985 19.748V18.4537Z" fill="white"/>
</svg>

<svg fill="none" xmlns="http://www.w3.org/2000/svg" viewBox="0 0 18 24"><path d="M4.4 1.5h8.95c.88 0 1.68.3 2.26.8.58.5.94 1.17.94 1.92V19.75c0 .75-.36 1.43-.94 1.92-.58.5-1.38.8-2.26.8H4.4a3.5 3.5 0 0 1-2.26-.8 2.53 2.53 0 0 1-.94-1.92V4.22c0-.75.36-1.43.94-1.92a3.5 3.5 0 0 1 2.26-.8Zm.2 5.9c-.22-.2-.2-.51.02-.7.23-.18.6-.18.82.02L8.3 9.3V2.48H4.4c-.56 0-1.07.2-1.44.51-.37.32-.6.76-.6 1.23v13.25H15.4V4.22c0-.47-.23-.91-.6-1.23a2.23 2.23 0 0 0-1.45-.5h-3.9v6.8l2.87-2.57c.22-.2.58-.2.81-.02.24.19.25.5.03.7L9.3 10.86l-.03.02a.65.65 0 0 1-.81-.02L4.6 7.39Zm10.8 11.05H2.36v1.3c0 .48.23.91.6 1.23.37.31.88.5 1.45.5h8.94c.56 0 1.08-.19 1.45-.5.37-.32.6-.75.6-1.23v-1.3Z" fill="currentColor"/></svg>
